; generated by Slic3r 1.37.2 on 2017-11-17 at 15:27:24

; 

; external perimeters extrusion width = 0.60mm
; perimeters extrusion width = 0.43mm
; infill extrusion width = 0.70mm
; solid infill extrusion width = 0.70mm
; top infill extrusion width = 0.43mm
; first layer extrusion width = 0.42mm

M107
M115 U3.0.12 ; tell printer latest fw version
M83  ; extruder relative mode
M104 S270 ; set extruder temp
M140 S100 ; set bed temp
M190 S100 ; wait for bed temp
M109 S270 ; wait for extruder temp
G28 W ; home all without mesh bed level
G80 ; mesh bed leveling
G1 Y-3.0 F1000.0 ; go outside pritn area
G1 X60.0 E9.0  F1000.0 ; intro line
G1 X100.0 E12.5  F1000.0 ; intro line
; Filament gcode

G21 ; set units to millimeters
G90 ; use absolute coordinates
M83 ; use relative distances for extrusion
G1 E-0.80000 F2100.00000
G1 Z0.200 F7200.000
G1 X102.662 Y68.817 F7200.000
G1 E0.80000 F2100.00000
M204 S1000
G1 F2100
G1 X103.024 Y68.319 E0.01929
G1 X103.504 Y67.929 E0.01941
G1 X104.069 Y67.676 E0.01941
G1 X104.680 Y67.577 E0.01941
G1 X145.254 Y67.576 E1.27215
G1 X146.149 Y67.753 E0.02860
G1 X146.912 Y68.253 E0.02860
G1 X147.429 Y69.004 E0.02860
G1 X147.626 Y69.895 E0.02860
G1 X147.627 Y137.722 E2.12668
G1 X147.548 Y138.310 E0.01858
G1 X147.026 Y140.004 E0.05560
G1 X146.640 Y140.526 E0.02036
G1 X145.696 Y141.475 E0.04195
G1 X145.304 Y141.770 E0.01538
G1 X144.729 Y142.019 E0.01965
G1 X143.007 Y142.422 E0.05545
G1 X107.056 Y142.424 E1.12722
G1 X106.484 Y142.344 E0.01811
G1 X104.784 Y141.820 E0.05576
G1 X104.256 Y141.429 E0.02060
G1 X103.323 Y140.493 E0.04143
G1 X103.028 Y140.097 E0.01550
G1 X102.782 Y139.525 E0.01953
G1 X102.374 Y137.773 E0.05640
G1 X102.373 Y69.942 E2.12680
G1 X102.448 Y69.361 E0.01835
G1 X102.640 Y68.873 E0.01646
G1 F5760
G1 X103.024 Y68.319 E-0.23330
G1 F5760
G1 X103.504 Y67.929 E-0.21443
G1 F5760
G1 X104.069 Y67.676 E-0.21443
G1 F5760
G1 X104.348 Y67.631 E-0.09784
G1 E-0.04000 F2100.00000
G1 X125.290 Y136.493 F7200.000
G1 E0.80000 F2100.00000
G1 F1260
G1 X144.460 Y136.493 E0.60106
G1 X144.460 Y137.731 E0.03881
G1 X144.258 Y138.484 E0.02444
G1 X143.687 Y139.055 E0.02534
G1 X142.906 Y139.264 E0.02534
G1 X142.126 Y139.055 E0.02534
G1 X141.554 Y138.484 E0.02534
G1 X141.401 Y137.913 E0.01852
G1 X128.349 Y137.913 E0.40926
G1 X128.196 Y138.484 E0.01852
G1 X127.624 Y139.055 E0.02534
G1 X126.844 Y139.264 E0.02534
G1 X126.063 Y139.055 E0.02534
G1 X125.492 Y138.484 E0.02534
G1 X125.290 Y137.731 E0.02444
G1 X125.290 Y136.553 E0.03692
G1 X125.277 Y136.093 F7200.000
G1 F5760
G1 X127.484 Y136.546 E-0.76000
G1 E-0.04000 F2100.00000
G1 X125.000 Y138.105 F7200.000
G1 E0.80000 F2100.00000
G1 F840
G1 X125.046 Y138.277 E0.00556
G1 X125.000 Y138.231 E0.00203
G1 X124.954 Y138.277 E0.00203
G1 X124.984 Y138.163 E0.00368
G1 F5760
G1 X125.046 Y138.277 E-0.04464
G1 F5760
G1 X125.000 Y138.231 E-0.02247
G1 F5760
G1 X124.954 Y138.277 E-0.02247
G1 F5760
G1 X124.984 Y138.163 E-0.04063
G1 E-0.66978 F2100.00000
G1 X105.540 Y136.493 F7200.000
G1 E0.80000 F2100.00000
G1 F1260
G1 X124.710 Y136.493 E0.60106
G1 X124.710 Y137.731 E0.03881
G1 X124.508 Y138.484 E0.02444
G1 X123.937 Y139.055 E0.02534
G1 X123.156 Y139.264 E0.02534
G1 X122.376 Y139.055 E0.02534
G1 X121.804 Y138.484 E0.02534
G1 X121.651 Y137.913 E0.01852
G1 X108.599 Y137.913 E0.40926
G1 X108.446 Y138.484 E0.01852
G1 X107.874 Y139.055 E0.02534
G1 X107.094 Y139.264 E0.02534
G1 X106.313 Y139.055 E0.02534
G1 X105.742 Y138.484 E0.02534
G1 X105.540 Y137.731 E0.02444
G1 X105.540 Y136.553 E0.03692
G1 X105.527 Y136.093 F7200.000
G1 X105.337 Y136.116 F7200.000
G1 F1680
G1 X105.337 Y70.540 E2.05608
G1 X144.663 Y70.540 E1.23303
G1 X144.663 Y136.116 E2.05608
G1 X105.397 Y136.116 E1.23115
G1 F5760
G1 X105.395 Y133.922 E-0.76000
G1 E-0.04000 F2100.00000
G1 X140.992 Y138.493 F7200.000
G1 E0.80000 F2100.00000
G1 F1260
G1 X128.758 Y138.493 E0.38356
G1 X128.685 Y138.766 E0.00887
G1 X127.907 Y139.545 E0.03451
G1 X126.844 Y139.829 E0.03451
G1 X125.781 Y139.545 E0.03451
G1 X125.000 Y138.764 E0.03461
G1 X124.219 Y139.545 E0.03461
G1 X123.156 Y139.829 E0.03451
G1 X122.093 Y139.545 E0.03451
G1 X121.315 Y138.766 E0.03451
G1 X121.242 Y138.493 E0.00887
G1 X109.008 Y138.493 E0.38357
G1 X108.935 Y138.766 E0.00887
G1 X108.157 Y139.545 E0.03451
G1 X107.094 Y139.829 E0.03451
G1 X106.031 Y139.545 E0.03451
G1 X105.252 Y138.766 E0.03451
G1 X104.960 Y137.675 E0.03541
G1 X104.960 Y70.163 E2.11680
G1 X145.040 Y70.163 E1.25668
G1 X145.040 Y137.675 E2.11680
G1 X144.748 Y138.766 E0.03541
G1 X143.969 Y139.545 E0.03451
G1 X142.906 Y139.829 E0.03451
G1 X141.843 Y139.545 E0.03451
G1 X141.065 Y138.766 E0.03451
G1 X141.007 Y138.551 E0.00699
G1 X140.902 Y138.103 F7200.000
G1 F5760
G1 X138.813 Y138.541 E-0.76000
G1 E-0.04000 F2100.00000
G1 X144.750 Y136.305 F7200.000
G1 E0.80000 F2100.00000
G1 F1680
G1 X144.750 Y137.637 E0.01773
G1 X144.730 Y137.777 E0.00188
G1 X144.502 Y138.624 E0.01167
G1 X143.827 Y139.298 E0.01269
G1 X142.906 Y139.545 E0.01269
G1 X141.985 Y139.298 E0.01269
G1 X141.311 Y138.624 E0.01269
G1 X141.218 Y138.283 E0.00471
G1 X141.176 Y138.207 E0.00115
G1 X141.136 Y138.203 E0.00053
G1 X128.614 Y138.203 E0.16660
G1 X128.574 Y138.207 E0.00053
G1 X128.532 Y138.283 E0.00115
G1 X128.439 Y138.624 E0.00471
G1 X127.765 Y139.298 E0.01269
G1 X126.844 Y139.545 E0.01269
G1 X125.923 Y139.298 E0.01269
G1 X125.263 Y138.641 E0.01239
G1 X125.119 Y138.452 E0.00316
G1 X124.881 Y138.452 F7200.000
G1 F1680
G1 X124.737 Y138.641 E0.00273
G1 X124.077 Y139.298 E0.01069
G1 X123.156 Y139.545 E0.01095
G1 X122.235 Y139.298 E0.01095
G1 X121.561 Y138.624 E0.01094
G1 X121.468 Y138.283 E0.00406
G1 X121.426 Y138.207 E0.00100
G1 X121.386 Y138.203 E0.00046
G1 X108.864 Y138.203 E0.14374
G1 X108.824 Y138.207 E0.00046
G1 X108.782 Y138.283 E0.00099
G1 X108.689 Y138.624 E0.00406
G1 X108.015 Y139.298 E0.01095
G1 X107.094 Y139.545 E0.01095
G1 X106.173 Y139.298 E0.01095
G1 X105.498 Y138.624 E0.01095
G1 X105.270 Y137.777 E0.01007
G1 X105.250 Y137.637 E0.00162
G1 X105.250 Y136.305 E0.01530
G1 F5760
G1 X105.250 Y137.637 E-0.46159
G1 F5760
G1 X105.270 Y137.777 E-0.04903
G1 F5760
G1 X105.457 Y138.473 E-0.24939
G1 E-0.04000 F2100.00000
G1 X106.212 Y136.003 F7200.000
G1 E0.80000 F2100.00000
G1 F2520
G1 X105.620 Y135.410 E0.02628
G1 X105.620 Y134.877 E0.01672
G1 X106.576 Y135.833 E0.04240
G1 X107.109 Y135.833 E0.01672
G1 X105.620 Y134.344 E0.06605
G1 X105.620 Y133.810 E0.01672
G1 X107.643 Y135.833 E0.08970
G1 X108.176 Y135.833 E0.01672
G1 X105.620 Y133.277 E0.11334
G1 X105.620 Y132.744 E0.01672
G1 X108.709 Y135.833 E0.13699
G1 X109.243 Y135.833 E0.01672
G1 X105.620 Y132.211 E0.16064
G1 X105.620 Y131.677 E0.01672
G1 X109.776 Y135.833 E0.18429
G1 X110.309 Y135.833 E0.01672
G1 X105.620 Y131.144 E0.20793
G1 X105.620 Y130.611 E0.01672
G1 X110.842 Y135.833 E0.23158
G1 X111.376 Y135.833 E0.01672
G1 X105.620 Y130.077 E0.25523
G1 X105.620 Y129.544 E0.01672
G1 X111.909 Y135.833 E0.27888
G1 X112.442 Y135.833 E0.01672
G1 X105.620 Y129.011 E0.30253
G1 X105.620 Y128.478 E0.01672
G1 X112.976 Y135.833 E0.32617
G1 X113.509 Y135.833 E0.01672
G1 X105.620 Y127.944 E0.34982
G1 X105.620 Y127.411 E0.01672
G1 X114.042 Y135.833 E0.37347
G1 X114.575 Y135.833 E0.01672
G1 X105.620 Y126.878 E0.39712
G1 X105.620 Y126.344 E0.01672
G1 X115.109 Y135.833 E0.42076
G1 X115.642 Y135.833 E0.01672
G1 X105.620 Y125.811 E0.44441
G1 X105.620 Y125.278 E0.01672
G1 X116.175 Y135.833 E0.46806
G1 X116.709 Y135.833 E0.01672
G1 X105.620 Y124.745 E0.49171
G1 X105.620 Y124.211 E0.01672
G1 X117.242 Y135.833 E0.51535
G1 X117.775 Y135.833 E0.01672
G1 X105.620 Y123.678 E0.53900
G1 X105.620 Y123.145 E0.01672
G1 X118.308 Y135.833 E0.56265
G1 X118.842 Y135.833 E0.01672
G1 X105.620 Y122.611 E0.58630
G1 X105.620 Y122.078 E0.01672
G1 X119.375 Y135.833 E0.60995
G1 X119.908 Y135.833 E0.01672
G1 X105.620 Y121.545 E0.63359
G1 X105.620 Y121.012 E0.01672
G1 X120.442 Y135.833 E0.65724
G1 X120.975 Y135.833 E0.01672
G1 X105.620 Y120.478 E0.68089
G1 X105.620 Y119.945 E0.01672
G1 X121.508 Y135.833 E0.70454
G1 X122.041 Y135.833 E0.01672
G1 X105.620 Y119.412 E0.72818
G1 X105.620 Y118.878 E0.01672
G1 X122.575 Y135.833 E0.75183
G1 X123.108 Y135.833 E0.01672
G1 X105.620 Y118.345 E0.77548
G1 X105.620 Y117.812 E0.01672
G1 X123.641 Y135.833 E0.79913
G1 X124.175 Y135.833 E0.01672
G1 X105.620 Y117.279 E0.82277
G1 X105.620 Y116.745 E0.01672
G1 X124.708 Y135.833 E0.84642
G1 X125.241 Y135.833 E0.01672
G1 X105.620 Y116.212 E0.87007
G1 X105.620 Y115.679 E0.01672
G1 X125.774 Y135.833 E0.89372
G1 X126.308 Y135.833 E0.01672
G1 X105.620 Y115.145 E0.91737
G1 X105.620 Y114.612 E0.01672
G1 X126.841 Y135.833 E0.94101
G1 X127.374 Y135.833 E0.01672
G1 X105.620 Y114.079 E0.96466
G1 X105.620 Y113.545 E0.01672
G1 X127.908 Y135.833 E0.98831
G1 X128.441 Y135.833 E0.01672
G1 X105.620 Y113.012 E1.01196
G1 X105.620 Y112.479 E0.01672
G1 X128.974 Y135.833 E1.03560
G1 X129.507 Y135.833 E0.01672
G1 X105.620 Y111.946 E1.05925
G1 X105.620 Y111.412 E0.01672
G1 X130.041 Y135.833 E1.08290
G1 X130.574 Y135.833 E0.01672
G1 X105.620 Y110.879 E1.10655
G1 X105.620 Y110.346 E0.01672
G1 X131.107 Y135.833 E1.13019
G1 X131.641 Y135.833 E0.01672
G1 X105.620 Y109.812 E1.15384
G1 X105.620 Y109.279 E0.01672
G1 X132.174 Y135.833 E1.17749
G1 X132.707 Y135.833 E0.01672
G1 X105.620 Y108.746 E1.20114
G1 X105.620 Y108.213 E0.01672
G1 X133.240 Y135.833 E1.22479
G1 X133.774 Y135.833 E0.01672
G1 X105.620 Y107.679 E1.24843
G1 X105.620 Y107.146 E0.01672
G1 X134.307 Y135.833 E1.27208
G1 X134.840 Y135.833 E0.01672
G1 X105.620 Y106.613 E1.29573
G1 X105.620 Y106.079 E0.01672
G1 X135.374 Y135.833 E1.31938
G1 X135.907 Y135.833 E0.01672
G1 X105.620 Y105.546 E1.34302
G1 X105.620 Y105.013 E0.01672
G1 X136.440 Y135.833 E1.36667
G1 X136.974 Y135.833 E0.01672
G1 X105.620 Y104.480 E1.39032
G1 X105.620 Y103.946 E0.01672
G1 X137.507 Y135.833 E1.41397
G1 X138.040 Y135.833 E0.01672
G1 X105.620 Y103.413 E1.43761
G1 X105.620 Y102.880 E0.01672
G1 X138.573 Y135.833 E1.46126
G1 X139.107 Y135.833 E0.01672
G1 X105.620 Y102.346 E1.48491
G1 X105.620 Y101.813 E0.01672
G1 X139.640 Y135.833 E1.50856
G1 X140.173 Y135.833 E0.01672
G1 X105.620 Y101.280 E1.53221
G1 X105.620 Y100.747 E0.01672
G1 X140.707 Y135.833 E1.55585
G1 X141.240 Y135.833 E0.01672
G1 X105.620 Y100.213 E1.57950
G1 X105.620 Y99.680 E0.01672
G1 X141.773 Y135.833 E1.60315
G1 X142.306 Y135.833 E0.01672
G1 X105.620 Y99.147 E1.62680
G1 X105.620 Y98.613 E0.01672
G1 X142.840 Y135.833 E1.65044
G1 X143.373 Y135.833 E0.01672
G1 X105.620 Y98.080 E1.67409
G1 X105.620 Y97.547 E0.01672
G1 X143.906 Y135.833 E1.69774
G1 X144.380 Y135.833 E0.01486
G1 X144.380 Y135.774 E0.00186
G1 X105.620 Y97.014 E1.71875
G1 X105.620 Y96.480 E0.01672
G1 X144.380 Y135.241 E1.71875
G1 X144.380 Y134.707 E0.01672
G1 X105.620 Y95.947 E1.71875
G1 X105.620 Y95.414 E0.01672
G1 X144.380 Y134.174 E1.71875
G1 X144.380 Y133.641 E0.01672
G1 X105.620 Y94.880 E1.71875
G1 X105.620 Y94.347 E0.01672
G1 X144.380 Y133.107 E1.71875
G1 X144.380 Y132.574 E0.01672
G1 X105.620 Y93.814 E1.71875
G1 X105.620 Y93.281 E0.01672
G1 X144.380 Y132.041 E1.71875
G1 X144.380 Y131.508 E0.01672
G1 X105.620 Y92.747 E1.71875
G1 X105.620 Y92.214 E0.01672
G1 X144.380 Y130.974 E1.71875
G1 X144.380 Y130.441 E0.01672
G1 X105.620 Y91.681 E1.71875
G1 X105.620 Y91.147 E0.01672
G1 X144.380 Y129.908 E1.71875
G1 X144.380 Y129.374 E0.01672
G1 X105.620 Y90.614 E1.71875
G1 X105.620 Y90.081 E0.01672
G1 X144.380 Y128.841 E1.71875
G1 X144.380 Y128.308 E0.01672
G1 X105.620 Y89.548 E1.71875
G1 X105.620 Y89.014 E0.01672
G1 X144.380 Y127.774 E1.71875
G1 X144.380 Y127.241 E0.01672
G1 X105.620 Y88.481 E1.71875
G1 X105.620 Y87.948 E0.01672
G1 X144.380 Y126.708 E1.71875
G1 X144.380 Y126.175 E0.01672
G1 X105.620 Y87.414 E1.71875
G1 X105.620 Y86.881 E0.01672
G1 X144.380 Y125.641 E1.71875
G1 X144.380 Y125.108 E0.01672
G1 X105.620 Y86.348 E1.71875
G1 X105.620 Y85.814 E0.01672
G1 X144.380 Y124.575 E1.71875
G1 X144.380 Y124.041 E0.01672
G1 X105.620 Y85.281 E1.71875
G1 X105.620 Y84.748 E0.01672
G1 X144.380 Y123.508 E1.71875
G1 X144.380 Y122.975 E0.01672
G1 X105.620 Y84.215 E1.71875
G1 X105.620 Y83.681 E0.01672
G1 X144.380 Y122.442 E1.71875
G1 X144.380 Y121.908 E0.01672
G1 X105.620 Y83.148 E1.71875
G1 X105.620 Y82.615 E0.01672
G1 X144.380 Y121.375 E1.71875
G1 X144.380 Y120.842 E0.01672
G1 X105.620 Y82.081 E1.71875
G1 X105.620 Y81.548 E0.01672
G1 X144.380 Y120.308 E1.71875
G1 X144.380 Y119.775 E0.01672
G1 X105.620 Y81.015 E1.71875
G1 X105.620 Y80.482 E0.01672
G1 X144.380 Y119.242 E1.71875
G1 X144.380 Y118.709 E0.01672
G1 X105.620 Y79.948 E1.71875
G1 X105.620 Y79.415 E0.01672
G1 X144.380 Y118.175 E1.71875
G1 X144.380 Y117.642 E0.01672
G1 X105.620 Y78.882 E1.71875
G1 X105.620 Y78.348 E0.01672
G1 X144.380 Y117.109 E1.71875
G1 X144.380 Y116.575 E0.01672
G1 X105.620 Y77.815 E1.71875
G1 X105.620 Y77.282 E0.01672
G1 X144.380 Y116.042 E1.71875
G1 X144.380 Y115.509 E0.01672
G1 X105.620 Y76.749 E1.71875
G1 X105.620 Y76.215 E0.01672
G1 X144.380 Y114.976 E1.71875
G1 X144.380 Y114.442 E0.01672
G1 X105.620 Y75.682 E1.71875
G1 X105.620 Y75.149 E0.01672
G1 X144.380 Y113.909 E1.71875
G1 X144.380 Y113.376 E0.01672
G1 X105.620 Y74.615 E1.71875
G1 X105.620 Y74.082 E0.01672
G1 X144.380 Y112.842 E1.71875
G1 X144.380 Y112.309 E0.01672
G1 X105.620 Y73.549 E1.71875
G1 X105.620 Y73.016 E0.01672
G1 X144.380 Y111.776 E1.71875
G1 X144.380 Y111.243 E0.01672
G1 X105.620 Y72.482 E1.71875
G1 X105.620 Y71.949 E0.01672
G1 X144.380 Y110.709 E1.71875
G1 X144.380 Y110.176 E0.01672
G1 X105.620 Y71.416 E1.71875
G1 X105.620 Y70.882 E0.01672
G1 X144.380 Y109.643 E1.71875
G1 X144.380 Y109.109 E0.01672
G1 X106.094 Y70.823 E1.69774
G1 X106.627 Y70.823 E0.01672
G1 X144.380 Y108.576 E1.67409
G1 X144.380 Y108.043 E0.01672
G1 X107.160 Y70.823 E1.65044
G1 X107.694 Y70.823 E0.01672
G1 X144.380 Y107.510 E1.62680
G1 X144.380 Y106.976 E0.01672
G1 X108.227 Y70.823 E1.60315
G1 X108.760 Y70.823 E0.01672
G1 X144.380 Y106.443 E1.57950
G1 X144.380 Y105.910 E0.01672
G1 X109.293 Y70.823 E1.55585
G1 X109.827 Y70.823 E0.01672
G1 X144.380 Y105.376 E1.53221
G1 X144.380 Y104.843 E0.01672
G1 X110.360 Y70.823 E1.50856
G1 X110.893 Y70.823 E0.01672
G1 X144.380 Y104.310 E1.48491
G1 X144.380 Y103.776 E0.01672
G1 X111.427 Y70.823 E1.46126
G1 X111.960 Y70.823 E0.01672
G1 X144.380 Y103.243 E1.43762
G1 X144.380 Y102.710 E0.01672
G1 X112.493 Y70.823 E1.41397
G1 X113.026 Y70.823 E0.01672
G1 X144.380 Y102.177 E1.39032
G1 X144.380 Y101.643 E0.01672
G1 X113.560 Y70.823 E1.36667
G1 X114.093 Y70.823 E0.01672
G1 X144.380 Y101.110 E1.34302
G1 X144.380 Y100.577 E0.01672
G1 X114.626 Y70.823 E1.31938
G1 X115.160 Y70.823 E0.01672
G1 X144.380 Y100.043 E1.29573
G1 X144.380 Y99.510 E0.01672
G1 X115.693 Y70.823 E1.27208
G1 X116.226 Y70.823 E0.01672
G1 X144.380 Y98.977 E1.24843
G1 X144.380 Y98.444 E0.01672
G1 X116.759 Y70.823 E1.22479
G1 X117.293 Y70.823 E0.01672
G1 X144.380 Y97.910 E1.20114
G1 X144.380 Y97.377 E0.01672
G1 X117.826 Y70.823 E1.17749
G1 X118.359 Y70.823 E0.01672
G1 X144.380 Y96.844 E1.15384
G1 X144.380 Y96.310 E0.01672
G1 X118.893 Y70.823 E1.13020
G1 X119.426 Y70.823 E0.01672
G1 X144.380 Y95.777 E1.10655
G1 X144.380 Y95.244 E0.01672
G1 X119.959 Y70.823 E1.08290
G1 X120.493 Y70.823 E0.01672
G1 X144.380 Y94.711 E1.05925
G1 X144.380 Y94.177 E0.01672
G1 X121.026 Y70.823 E1.03560
G1 X121.559 Y70.823 E0.01672
G1 X144.380 Y93.644 E1.01196
G1 X144.380 Y93.111 E0.01672
G1 X122.092 Y70.823 E0.98831
G1 X122.626 Y70.823 E0.01672
G1 X144.380 Y92.577 E0.96466
G1 X144.380 Y92.044 E0.01672
G1 X123.159 Y70.823 E0.94101
G1 X123.692 Y70.823 E0.01672
G1 X144.380 Y91.511 E0.91737
G1 X144.380 Y90.978 E0.01672
G1 X124.226 Y70.823 E0.89372
G1 X124.759 Y70.823 E0.01672
G1 X144.380 Y90.444 E0.87007
G1 X144.380 Y89.911 E0.01672
G1 X125.292 Y70.823 E0.84642
G1 X125.825 Y70.823 E0.01672
G1 X144.380 Y89.378 E0.82278
G1 X144.380 Y88.844 E0.01672
G1 X126.359 Y70.823 E0.79913
G1 X126.892 Y70.823 E0.01672
G1 X144.380 Y88.311 E0.77548
G1 X144.380 Y87.778 E0.01672
G1 X127.425 Y70.823 E0.75183
G1 X127.959 Y70.823 E0.01672
G1 X144.380 Y87.245 E0.72818
G1 X144.380 Y86.711 E0.01672
G1 X128.492 Y70.823 E0.70454
G1 X129.025 Y70.823 E0.01672
G1 X144.380 Y86.178 E0.68089
